!!!COM: Gaspar van Weerbeke
!!!CDT: ~1450-~1517
!!!OTL: Ave verum corpus
!!!AGN: Motet
!!!SCT: Gas0415
!!!SCA: Gas0415
!!!voices: 4
**kern	**text	**kern	**text	**kern	**text	**kern	**text
*part4	*part4	*part3	*part3	*part2	*part2	*part1	*part1
*staff4	*staff4	*staff3	*staff3	*staff2	*staff2	*staff1	*staff1
*I"Bassus	*	*I"Tenor	*	*I"Altus	*	*I"Superius	*
*I'B	*	*I'T	*	*I'A	*	*I'S	*
*clefF4	*	*clefGv2	*	*clefGv2	*	*clefG2	*
*k[b-]	*	*k[b-]	*	*k[b-]	*	*k[b-]	*
*M2/2	*	*M2/2	*	*M2/2	*	*M2/2	*
*met(C|)	*	*met(C|)	*	*met(C|)	*	*met(C|)	*
=1	=1	=1	=1	=1	=1	=1	=1
1GG	A-	1G	A-	1d	A-	1g	A-
=2	=2	=2	=2	=2	=2	=2	=2
2GG	-ve	2G	-ve	2d	-ve	2g	-ve
[2G	ve-	[2B-y	ve-	[2d	ve-	[2g	ve-
=3	=3	=3	=3	=3	=3	=3	=3
2G]	.	2B-]	.	2d]	.	2g]	.
2E	-rum	2c	-rum	2G	-rum	2g	-rum
=4	=4	=4	=4	=4	=4	=4	=4
2D	cor-	2d	cor-	2A	cor-	2f	cor-
2D	-pus	2d	-pus	2A	-pus	2f	-pus
=5	=5	=5	=5	=5	=5	=5	=5
*	*	*	*	*lig	*	*lig	*
2.C	na-	[1G	na-	1c	na-	2e	na-
.	.	.	.	.	.	[2g	.
8BB-yL	.	.	.	.	.	.	.
8AAJ	.	.	.	.	.	.	.
=6	=6	=6	=6	=6	=6	=6	=6
1GG	.	1G]	.	1B-y	.	4g]	.
*	*	*	*	*Xlig	*	*Xlig	*
.	.	.	.	.	.	4f	.
.	.	.	.	.	.	4e	.
.	.	.	.	.	.	4d	.
!!LO:LB:g=original
=7	=7	=7	=7	=7	=7	=7	=7
*	*	*	*	*lig	*	*	*
1C	.	2.G	-tum	2G	.	1e	.
.	.	.	.	2E	.	.	.
*	*	*	*	*Xlig	*	*	*
.	.	4A	.	.	.	.	.
=8	=8	=8	=8	=8	=8	=8	=8
1BB-y;	-tum	1B-y;	.	1F;	-tum	1d;	-tum
=9	=9	=9	=9	=9	=9	=9	=9
2D	ex	2F	ex	2f	ex	1r	.
2C	Ma-	2G	Ma-	2e	Ma-	.	.
=10	=10	=10	=10	=10	=10	=10	=10
1BB-y	-ri-	1B-y	-ri-	1d	-ri-	2f	ex
.	.	.	.	.	.	2g	Ma-
=11	=11	=11	=11	=11	=11	=11	=11
2GG	-a	1B-y	-a	2d	-a	1b-y	-ri-
4r	.	.	.	2g	vir-	.	.
4G	vir-	.	.	.	.	.	.
=12	=12	=12	=12	=12	=12	=12	=12
4A	.	2c	vir-	4e	.	2a	-a
4F	.	.	.	4f	.	.	.
4G	.	4B-y	.	4e	.	4g	vir-
4F	.	4c	.	[4f	.	[4a	.
=13	=13	=13	=13	=13	=13	=13	=13
4D	.	4d	.	4f]	.	4a]	.
4G	.	4B-y	.	2.d	-gi-	2g	.
2D	-gi-	2A	-gi-	.	.	.	.
.	.	.	.	.	.	4f#i	-gi-
=14	=14	=14	=14	=14	=14	=14	=14
1GG;	-ne,	1G;	-ne,	1d;	-ne,	1g;	-ne,
!!LO:LB:g=original
=15	=15	=15	=15	=15	=15	=15	=15
2GG	ve-	2G	ve-	2B-y	ve-	2g	ve-
2GG	-re	2G	-re	2B-y	-re	2g	-re
=16	=16	=16	=16	=16	=16	=16	=16
2D	pas-	2A	pas-	2A	pas-	2f	pas-
2D	-sum,	2A	-sum,	2d	-sum,	2f	-sum,
=17	=17	=17	=17	=17	=17	=17	=17
2GG	im-	2B-y	im-	2d	im-	2g	im-
2GG	-mo-	2B-y	-mo-	2d	-mo-	2g	-mo-
=18	=18	=18	=18	=18	=18	=18	=18
1D	-la-	2.A	-la-	1d	-la-	2.a	-la-
.	.	4B-y	.	.	.	8gL	.
.	.	.	.	.	.	8fJ	.
=19	=19	=19	=19	=19	=19	=19	=19
2C	.	2c	.	[1G	.	4.e	.
.	.	.	.	.	.	8f	.
[2E-X	.	[2B-y	.	.	.	[2g	.
=20	=20	=20	=20	=20	=20	=20	=20
2E-]	.	2B-]	.	2G]	.	4g]	.
.	.	.	.	.	.	4f	.
2F	.	2A	.	4A	.	[2f	.
.	.	.	.	4B-y	.	.	.
=21	=21	=21	=21	=21	=21	=21	=21
1C	.	1G	.	1c	.	2f]	.
.	.	.	.	.	.	2e	.
!!LO:LB:g=original
=22	=22	=22	=22	=22	=22	=22	=22
1D;	-tum	1F;	-tum	1A;	-tum	1f;	-tum
=23	=23	=23	=23	=23	=23	=23	=23
1D	in	1F	in	1A	in	1f	in
=24	=24	=24	=24	=24	=24	=24	=24
1C	cru-	2.G	cru-	1c	cru-	1e	cru-
.	.	4A	.	.	.	.	.
=25	=25	=25	=25	=25	=25	=25	=25
2BB-y	-ce	2B-y	-ce	2F	-ce	2d	-ce
*	*	*	*	*	*	*	*edit
[2F	pro	[2c	pro	[2A	pro	2c	pro
=26	=26	=26	=26	=26	=26	=26	=26
*	*	*	*	*	*	*	*Xedit
2F]	.	4c]	.	2A]	.	2.f	ho-
.	.	4B-y	.	.	.	.	.
2D	ho-	[2B-y	ho-	2F	ho-	.	.
.	.	.	.	.	.	8eL	.
.	.	.	.	.	.	8dJ	.
=27	=27	=27	=27	=27	=27	=27	=27
1C	-mi-	2B-]	.	2G	.	2e	.
.	.	2A	-mi-	2E	-mi-	2e	-mi-
=28	=28	=28	=28	=28	=28	=28	=28
1BB-y;	-ne,	1B-y;	-ne,	1F;	-ne,	1d;	-ne,
!!LO:PB:g=original
=29	=29	=29	=29	=29	=29	=29	=29
2GG	cu-	2B-y	cu-	2d	cu-	2d	cu-
2GG	-ius	2B-y	-ius	2d	-ius	2d	-ius
=30	=30	=30	=30	=30	=30	=30	=30
1D	la-	1A	la-	1d	la-	1f	la-
=31	=31	=31	=31	=31	=31	=31	=31
2E-j	-tus	2G	-tus	2G	-tus	2g	-tus
2D	per-	2d	per-	[2A	per-	4.f	per-
.	.	.	.	.	.	8g	.
=32	=32	=32	=32	=32	=32	=32	=32
2F	-fo-	2c	-fo-	2A]	.	2a	-fo-
2G	-ra-	2B-y	-ra-	2G	-fo-	[2b-y	-ra-
=33	=33	=33	=33	=33	=33	=33	=33
*	*	*lig	*	*	*	*	*
2A	.	2c	.	2F	-ra-	4b-]	.
.	.	.	.	.	.	4a	.
2F	.	2A	.	2f	.	[2a	.
*	*	*Xlig	*	*	*	*	*
=34	=34	=34	=34	=34	=34	=34	=34
1G	.	1B-y	.	1d	.	2a]	.
.	.	.	.	.	.	2g	.
=35	=35	=35	=35	=35	=35	=35	=35
[1D	-tum	1A	-tum	2.d	-tum	2.a	-tum
.	.	.	.	8cL	.	4f	.
.	.	.	.	8B-yJ	.	.	.
=36	=36	=36	=36	=36	=36	=36	=36
1D];	.	1d;	.	1A;	.	1f;	.
!!LO:LB:g=original
=37	=37	=37	=37	=37	=37	=37	=37
2D	sa-	2d	sa-	2f	sa-	2b-y	sa-
2D	-cro	2d	-cro	2f	-cro	2b-y	-cro
=38	=38	=38	=38	=38	=38	=38	=38
[1F	flu-	[1c	flu-	[1f	flu-	[1a	flu-
=39	=39	=39	=39	=39	=39	=39	=39
2F]	.	2c]	.	2f]	.	2a]	.
2G	.	2B-y	.	2d	.	2g	.
=40	=40	=40	=40	=40	=40	=40	=40
1D	-xit	1A	-xit	1d	-xit	2.f	-xit
.	.	.	.	.	.	8gL	.
.	.	.	.	.	.	8aJ	.
=41	=41	=41	=41	=41	=41	=41	=41
*	*	*lig	*	*	*	*	*
2GG	san-	2G	san-	2r	.	2b-y	san-
2D	.	2F	.	2d	san-	[2a	.
*	*	*Xlig	*	*	*	*	*
=42	=42	=42	=42	=42	=42	=42	=42
*lig	*	*lig	*	*lig	*	*	*
1E-X	-gui-	1G	-gui-	2B-y	.	4a]	.
.	.	.	.	.	.	4g	.
.	.	.	.	2c	.	[2g	.
*	*	*	*	*Xlig	*	*	*
=43	=43	=43	=43	=43	=43	=43	=43
1D	.	1A	.	1d	-gui-	2g]	.
*Xlig	*	*Xlig	*	*	*	*	*
.	.	.	.	.	.	2f#i	-gui-
=44	=44	=44	=44	=44	=44	=44	=44
1GG;	-ne.	1G;	-ne.	1d;	-ne.	1g;	-ne.
!!LO:LB:g=original
=45	=45	=45	=45	=45	=45	=45	=45
!!LO:TX:t=[whole] = [whole-dot]
!!LO:TX:t= Cut-C 3
*M3/2	*	*M3/2	*	*M3/2	*	*M3/2	*
*met(C|3)	*	*met(C|3)	*	*met(C|3)	*	*met(C|3)	*
1GG	E-	1G	E-	1d	E-	1.r	.
2D	-sto	2F	-sto	2d	-sto	.	.
=46	=46	=46	=46	=46	=46	=46	=46
*	*	*	*	*lig	*	*	*
1E-i	no-	1G	no-	2B-y	no-	1g	E-
.	.	.	.	2c	.	.	.
*	*	*	*	*Xlig	*	*	*
2D	-bis	2A	-bis	2d	-bis	2f	-sto
=47	=47	=47	=47	=47	=47	=47	=47
*lig	*	*	*	*	*	*	*
2BB-y	pre-	1B-y	pre-	1d	pre-	1g	no-
2GG	.	.	.	.	.	.	.
*Xlig	*	*	*	*	*	*	*
2D	-gu-	2A	-gu-	2d	-gu-	2a	-bis
=48	=48	=48	=48	=48	=48	=48	=48
1GG	-sta-	1G	-sta-	2.d	-sta-	1b-y	pre-
.	.	.	.	4e	.	.	.
2D	.	2F	.	2f	.	2a	-gu-
=49	=49	=49	=49	=49	=49	=49	=49
*	*	*	*	*lig	*	*	*
1E-i	.	1G	.	2B-y	.	1g	-sta-
.	.	.	.	2c	.	.	.
*	*	*	*	*Xlig	*	*	*
2D	-tum	2A	-tum	2d	-tum	2f	-tum
=50	=50	=50	=50	=50	=50	=50	=50
1D	mor-	1A	mor-	1d	mor-	1f	mor-
2D	-tis	2A	-tis	2d	-tis	2f	-tis
=51	=51	=51	=51	=51	=51	=51	=51
1D	in	1A	in	1d	in	1f	in
2G	ex-	2B-y	ex-	2B-y	ex-	2g	ex-
!!LO:LB:g=original
=52	=52	=52	=52	=52	=52	=52	=52
1F	-a-	2.c	-a-	1A	-a-	2.a	-a-
.	.	4A	.	.	.	4f	.
2E-i	.	4B-y	.	2r	.	2g	.
.	.	4c	.	.	.	.	.
=53	=53	=53	=53	=53	=53	=53	=53
2.D	.	2.d	.	2.f	.	4f	.
.	.	.	.	.	.	4g	.
.	.	.	.	.	.	4a	.
4G	.	8cL	.	4g	.	4b-y	.
.	.	8B-yJ	.	.	.	.	.
2F	.	2A	.	2a	.	2cc	.
=54	=54	=54	=54	=54	=54	=54	=54
*lig	*	*lig	*	*	*	*	*
2G	-mi-	2B-y	-mi-	4d	.	1b-y	.
.	.	.	.	4e	.	.	.
1F	.	1c	.	1f	-mi-	.	.
*Xlig	*	*Xlig	*	*	*	*	*
.	.	.	.	.	.	2a	-mi-
=55	=55	=55	=55	=55	=55	=55	=55
1BB-y;	-ne.	1B-y;	-ne.	1f;	-ne.	1b-y;	-ne.
=56	=56	=56	=56	=56	=56	=56	=56
!!LO:TX:t=[whole-dot] = [whole]
*M2/2	*	*M2/2	*	*M2/2	*	*M2/2	*
*met(C|)	*	*met(C|)	*	*met(C|)	*	*met(C|)	*
2r	.	2r	.	2r	.	2r	.
2BB-y	O	2d	O	2f	O	2b-y	O
=57	=57	=57	=57	=57	=57	=57	=57
1BB-y	cle-	1d	cle-	1f	cle-	1b-y	cle-
=58	=58	=58	=58	=58	=58	=58	=58
1F;	-mens!	1c;	-mens!	1f;	-mens!	1a;	-mens!
!!LO:PB:g=original
=59	=59	=59	=59	=59	=59	=59	=59
2r	.	2r	.	2r	.	2r	.
2F	O	2A	O	2F	O	2a	O
=60	=60	=60	=60	=60	=60	=60	=60
*	*	*lig	*	*	*	*	*
1E-X	pi-	2B-y	pi-	1G	pi-	1g	pi-
.	.	2c	.	.	.	.	.
*	*	*Xlig	*	*	*	*	*
=61	=61	=61	=61	=61	=61	=61	=61
1D;	-e!	1d;	-e!	1A;	-e!	1f;	-e!
=62	=62	=62	=62	=62	=62	=62	=62
2r	.	2r	.	2r	.	2r	.
2D	O	2A	O	2d	O	2f	O
=63	=63	=63	=63	=63	=63	=63	=63
2D	Je-	2A	Je-	2d	Je-	2f	Je-
2D	-su	2A	-su	2d	-su	2f	-su
=64	=64	=64	=64	=64	=64	=64	=64
*	*	*lig	*	*lig	*	*	*
1G	dul-	1B-y	dul-	2B-y	dul-	2.g	dul-
.	.	.	.	2G	.	.	.
*	*	*	*	*Xlig	*	*	*
.	.	.	.	.	.	4f	.
=65	=65	=65	=65	=65	=65	=65	=65
1C	.	1c	.	1G	.	4e	.
*	*	*Xlig	*	*	*	*	*
.	.	.	.	.	.	4d	.
.	.	.	.	.	.	2e	.
!!LO:LB:g=original
=66	=66	=66	=66	=66	=66	=66	=66
1GG	-cis	1B-y	-cis	1G	-cis	1d	-cis
=67	=67	=67	=67	=67	=67	=67	=67
2D	fi-	2F	fi-	1r	.	1r	.
4E-j	-li	4G	-li	.	.	.	.
4F	.	4A	.	.	.	.	.
=68	=68	=68	=68	=68	=68	=68	=68
4D	.	4F	.	1r	.	2f	fi-
4BB-y	.	2B-y	.	.	.	.	.
4E-i	.	.	.	.	.	4g	-li
4F	.	4A	.	.	.	4a	.
=69	=69	=69	=69	=69	=69	=69	=69
4D	.	2B-y	vir-	2f	fi-	4f	.
4BB-y	.	.	.	.	.	2b-y	.
2F	vir-	2c	.	2f	-li	.	.
.	.	.	.	.	.	4a	.
=70	=70	=70	=70	=70	=70	=70	=70
4.G	-gi-	4B-y	-gi-	4.d	vir-	4.b-y	vir-
.	.	2d	.	.	.	.	.
8F	.	.	.	8e	.	8a	.
4D	.	.	.	4f	.	4f	.
4E	.	4c	.	4e	.	4g	.
=71	=71	=71	=71	=71	=71	=71	=71
4.F	.	4A	.	4.c	-gi-	4.a	-gi-
.	.	2c	.	.	.	.	.
8E	.	.	.	8d	.	8g	.
4C	.	.	.	4e	.	4e	.
4D	.	4B-y	.	4d	.	4f	.
!!LO:LB:g=original
=72	=72	=72	=72	=72	=72	=72	=72
4.E-X	.	4G	.	4.B-y	.	4.g	.
.	.	2B-y	.	.	.	.	.
8D	.	.	.	8c	.	8f	.
4BB-y	.	.	.	4d	.	4d	.
4C	.	4A	.	4c	.	4e	.
=73	=73	=73	=73	=73	=73	=73	=73
4.D	.	4F	.	4.A	.	4.f	.
.	.	2A	.	.	.	.	.
8C	.	.	.	8B-y	.	8e	.
4AA	.	.	.	4c	.	4c	.
4BB-y	.	[4G	.	4B-y	.	4d	.
=74	=74	=74	=74	=74	=74	=74	=74
2C	-nis	4G]	.	2G	-nis	4e	.
.	.	8FL	.	.	.	8dL	.
.	.	8EJ	.	.	.	8cJ	.
4r	.	4F	-nis	4A	Ma-	2d	-nis
[4BB-y	Ma-	[4D	Ma-	4B-y	.	.	.
=75	=75	=75	=75	=75	=75	=75	=75
4BB-]	.	4D]	.	2G	.	4r	.
4C	.	4E	.	.	.	4g	Ma-
4D	.	4D	.	4d	.	4f	.
4GG	.	[4G	.	4B-y	.	4d	.
=76	=76	=76	=76	=76	=76	=76	=76
2C	.	4G]	.	4c	.	2e	.
.	.	8FL	.	2A	.	.	.
.	.	8EJ	.	.	.	.	.
4D	.	4F	.	.	.	4a	.
4E	.	4E	.	4e	.	4g	.
=77	=77	=77	=77	=77	=77	=77	=77
4AA	.	2A	.	4c	.	4e	.
2D	.	.	.	4d	.	2f	.
.	.	8GL	.	2B-y	.	.	.
.	.	8FJ	.	.	.	.	.
4E-i	.	4G	.	.	.	4b-y	.
!!LO:LB:g=original
=78	=78	=78	=78	=78	=78	=78	=78
4F	.	4F	.	4f	.	4a	.
4BB-y	.	2B-y	.	4d	.	4f	.
2E-X	.	.	.	4e-X	.	2g	.
.	.	8AL	.	[4c	.	.	.
.	.	8GJ	.	.	.	.	.
=79	=79	=79	=79	=79	=79	=79	=79
4F	.	4A	.	4c]	.	4cc	.
4G	.	4G	.	4g	.	4b-y	.
4C	.	2c	.	4e	.	4g	.
[4F	.	.	.	4f	.	[4a	.
=80	=80	=80	=80	=80	=80	=80	=80
4F]	.	8B-yL	.	2d	.	4a]	.
.	.	8AJ	.	.	.	.	.
4G	.	4B-y	.	.	.	4dd	.
4A	.	4A	.	4r	.	4cc	.
4D	.	[4d	-ri-	4f	-ri-	4a	.
=81	=81	=81	=81	=81	=81	=81	=81
2G	-ri-	4d]	.	4g	.	4.b-y	-ri-
.	.	8cL	.	8dL	.	.	.
.	.	8B-yJ	.	8eJ	.	8a	.
4D	.	4d	.	[2f	.	4f	.
[4F	.	[4c	.	.	.	[4a	.
=82	=82	=82	=82	=82	=82	=82	=82
4F]	.	4c]	.	4f]	.	4a]	.
4G	.	4B-y	.	2.d	.	2g	.
2D	.	2A	.	.	.	.	.
.	.	.	.	.	.	4f#i	.
=83	=83	=83	=83	=83	=83	=83	=83
1GGl	-e!	1Gl	-e!	1dl	-e!	1gl	-e!
==	==	==	==	==	==	==	==
*-	*-	*-	*-	*-	*-	*-	*-
!!!system-decoration: [*]
!!!RDF**kern: j = editorial accidental, optional, paren up
!!!RDF**kern: i = editorial accidental
!!!RDF**kern: l = terminal breve
!!!PTL: Gaspar van Weerbeke: Collected Works. IV. Motets
!!!PPR: American Institute of Musicology
!!!PC#: Corpus Mensurabilis Musicae 106/IV
!!!PDT: 2010
!!!PED: Pavanello, Agnese
!!!YEC: Copyright 2010, Pavanello, Agnese
!!!YEM: CC-BY-SA 4.0 (https://creativecommons.org/licenses/by-nc/4.0/legalcode)
!!!EED: Mair-Gruber, Roland
!!!EEV: 2021/09/07
